X:66
T:My Grandmother. WM.066
M:2/4
L:1/8
Q:1/2=70
S:Wm.Mittell’s MS, New Romney,Kent,1799
R:.Air
O:England
A:Kent
Z:vmp.Chris Partington
K:G
G>B dd|(eg)d2|cA BG|F/G/A/F/D2|G>B eg|dg eg|dc AF|G2G2:|!
|:AF dA|Bd BG|AD dc|(c2B2)|eg dg|cg Bg|Ac AF|G2G2:|

